app/assets/images/heroicons/micro/building-office.svg

<svg width="16" height="16" viewBox="0 0 16 16" fill="none" xmlns="http://www.w3.org/2000/svg">
<path fill-rule="evenodd" clip-rule="evenodd" d="M3.75 2C3.33579 2 3 2.33579 3 2.75C3 3.16421 3.33579 3.5 3.75 3.5H4V12.5H3.75C3.33579 12.5 3 12.8358 3 13.25C3 13.6642 3.33579 14 3.75 14H6C6.27614 14 6.5 13.7761 6.5 13.5V10.5C6.5 10.2239 6.72386 10 7 10H9C9.27614 10 9.5 10.2239 9.5 10.5V13.5C9.5 13.7761 9.72386 14 10 14H12.25C12.6642 14 13 13.6642 13 13.25C13 12.8358 12.6642 12.5 12.25 12.5H12V3.5H12.25C12.6642 3.5 13 3.16421 13 2.75C13 2.33579 12.6642 2 12.25 2H3.75ZM6.5 4C6.22386 4 6 4.22386 6 4.5V5C6 5.27614 6.22386 5.5 6.5 5.5H7C7.27614 5.5 7.5 5.27614 7.5 5V4.5C7.5 4.22386 7.27614 4 7 4H6.5ZM6 7C6 6.72386 6.22386 6.5 6.5 6.5H7C7.27614 6.5 7.5 6.72386 7.5 7V7.5C7.5 7.77614 7.27614 8 7 8H6.5C6.22386 8 6 7.77614 6 7.5V7ZM9 4C8.72386 4 8.5 4.22386 8.5 4.5V5C8.5 5.27614 8.72386 5.5 9 5.5H9.5C9.77614 5.5 10 5.27614 10 5V4.5C10 4.22386 9.77614 4 9.5 4H9ZM8.5 7C8.5 6.72386 8.72386 6.5 9 6.5H9.5C9.77614 6.5 10 6.72386 10 7V7.5C10 7.77614 9.77614 8 9.5 8H9C8.72386 8 8.5 7.77614 8.5 7.5V7Z" fill="#0F172A"/>
</svg>

<svg xmlns="http://www.w3.org/2000/svg" viewBox="0 0 16 16" fill="currentColor" aria-hidden="true" data-slot="icon">
  <path fill-rule="evenodd" d="M3.75 2a.75.75 0 0 0 0 1.5H4v9h-.25a.75.75 0 0 0 0 1.5H6a.5.5 0 0 0 .5-.5v-3A.5.5 0 0 1 7 10h2a.5.5 0 0 1 .5.5v3a.5.5 0 0 0 .5.5h2.25a.75.75 0 0 0 0-1.5H12v-9h.25a.75.75 0 0 0 0-1.5h-8.5ZM6.5 4a.5.5 0 0 0-.5.5V5a.5.5 0 0 0 .5.5H7a.5.5 0 0 0 .5-.5v-.5A.5.5 0 0 0 7 4h-.5ZM6 7a.5.5 0 0 1 .5-.5H7a.5.5 0 0 1 .5.5v.5A.5.5 0 0 1 7 8h-.5a.5.5 0 0 1-.5-.5V7Zm3-3a.5.5 0 0 0-.5.5V5a.5.5 0 0 0 .5.5h.5A.5.5 0 0 0 10 5v-.5a.5.5 0 0 0-.5-.5H9Zm-.5 3a.5.5 0 0 1 .5-.5h.5a.5.5 0 0 1 .5.5v.5a.5.5 0 0 1-.5.5H9a.5.5 0 0 1-.5-.5V7Z" clip-rule="evenodd"/>
</svg>
